widgets/BasemapGallery/setting/css/images/Add.svg

<svg width="16" height="16" xmlns="http://www.w3.org/2000/svg"><path d="M8 0C3.6 0 0 3.6 0 8s3.6 8 8 8 8-3.6 8-8-3.6-8-8-8zM1.5 8c0-3.575 2.925-6.5 6.5-6.5s6.5 2.925 6.5 6.5-2.925 6.5-6.5 6.5S1.5 11.575 1.5 8zm7.3-4H7.2v3.2H4v1.6h3.2V12h1.6V8.8H12V7.2H8.8V4z" fill="#BFBFC2" fill-rule="evenodd"/></svg>

<?xml version="1.0" encoding="UTF-8" standalone="no"?>
<svg width="16px" height="16px" viewBox="0 0 16 16" version="1.1" xmlns="http://www.w3.org/2000/svg" xmlns:xlink="http://www.w3.org/1999/xlink">
    <!-- Generator: Sketch 40.3 (33839) - http://www.bohemiancoding.com/sketch -->
    <title>Add</title>
    <desc>Created with Sketch.</desc>
    <defs></defs>
    <g id="Basemap" stroke="none" stroke-width="1" fill="none" fill-rule="evenodd">
        <g id="Basemap_Setting-Add-URL-Add" transform="translate(-914.000000, -601.000000)" fill="#BFBFC2">
            <g id="Create" transform="translate(480.000000, 290.000000)">
                <g id="URL" transform="translate(30.000000, 275.000000)">
                    <g id="a" transform="translate(0.000000, 29.000000)">
                        <g id="Button" transform="translate(383.000000, 7.000000)">
                            <g id="Add" transform="translate(21.000000, 0.000000)">
                                <path d="M8,0 C3.6,0 0,3.6 0,8 C0,12.4 3.6,16 8,16 C12.4,16 16,12.4 16,8 C16,3.6 12.4,0 8,0 L8,0 Z M1.5,8 C1.5,4.425 4.425,1.5 8,1.5 C11.575,1.5 14.5,4.425 14.5,8 C14.5,11.575 11.575,14.5 8,14.5 C4.425,14.5 1.5,11.575 1.5,8 Z M8.8,4 L7.2,4 L7.2,7.2 L4,7.2 L4,8.8 L7.2,8.8 L7.2,12 L8.8,12 L8.8,8.8 L12,8.8 L12,7.2 L8.8,7.2 L8.8,4 L8.8,4 Z" id="Shape"></path>
                            </g>
                        </g>
                    </g>
                </g>
            </g>
        </g>
    </g>
</svg>
